X:1
T:Title
%%score { 1 | 2 }
L:1/8
M:3/4
K:Ab
V:1 treble nm="Grand Piano"
V:2 bass 
V:1
 z2 z2[Q:1/4=100] [CE]>[CE] | [CA]3 [CA] [EG]>[DF] | [CE]2 [A,C]2 [CE]>[CE] | %3
 [DE]3 [DE] [DF]>[DE] |[M:2/4] [CE]4 |[M:1/4] [CE]>[CE] |[M:3/4] [CA]3 [CA] [EG]>[DF] | %7
 [CE]2 [A,C]2 [CE]>[CA] | [=DA]3 [DF] [DG][DA] |[M:2/4] B4 |[M:1/4] E>E |[M:3/4] [Ec]3 [DB] A>F | %12
 E2 C2 [CE]>[CE] | [DE]3 [DE] [DF]>[DE] |[M:2/4] [CE]4 |[M:1/4] [CE]>[CE] | %16
[M:3/4] [CEe]3 [Ec] [DB][CA] | [EG]2 F2 GA | EA c3 B |[M:2/4] [CA]4 |] %20
V:2
 z2 z2 [A,,A,]>[A,,A,] | [A,,E,]3 [A,,E,] [A,,F,]>[A,,G,] | [A,,A,]2 [A,,E,]2 [A,,A,]>[A,,A,] | %3
 [B,,G,]3 [B,,G,] [E,B,]>[E,G,] |[M:2/4] [A,,A,]4 |[M:1/4] [A,,A,]>[A,,A,] | %6
[M:3/4] [A,,E,]3 [A,,E,] [A,,F,]>[A,,G,] | [A,,A,]2 [A,,E,]2 [A,,A,]>[A,,A,] | %8
 [B,,F,]3 [B,,A,] [B,,G,][B,,F,] |[M:2/4] [E,G,D]4 |[M:1/4] [E,G,D]>[E,G,D] | %11
[M:3/4] [A,,A,]3 [B,,G,] [C,A,C]>[F,A,D] | [A,C]2 [A,,A,]2 [A,,A,]>[A,,A,] | %13
 [B,,G,]3 [B,,G,] [E,,E,]>[E,,E,] |[M:2/4] [A,,E,]4 |[M:1/4] [A,,A,]>[A,,A,] | %16
[M:3/4] [A,,A,]3 [A,,A,] [B,,G,][C,A,] | [D,B,]2 [D,A,D]2 [=D,G,_C][D,A,C] | %18
 [E,A,C][E,A,C] [E,G,E]3 [E,G,D] |[M:2/4] [A,,A,]4 |] %20

